X: 0
T: Money In Both Pockets
C: Trad
O: Ireland
R: jig
M: 6/8
L: 1/8
K: Dmaj
|:d2F FEF|ABA ABc|d2F FEF|D2g f2e|
d2F FEF|ABA AFD|E2F AFE | EFA B2c:|
|:dfa afd|gfg ecA|dfa afd|g3 f2g|
agf bag| fed dcB | ABd BAF | EFA B2 c:|